X: 3
T: Willie Coleman's
R: jig
M: 6/8
L: 1/8
K: Gmaj
|~g3 edB|dgb age|~b3 age|dBd e2d||~g3 edB|dgb age|dBd gdB|AGF G3|


Tune 476	Setting 13367

